icons/1_Primary/DigitalOcean.svg

<svg width="1024" height="1024" viewBox="0 0 1024 1024" fill="none" xmlns="http://www.w3.org/2000/svg">
<g clip-path="url(#clip0_2_2001)">
<path d="M512 1024C794.77 1024 1024 794.77 1024 512C1024 229.23 794.77 0 512 0C229.23 0 0 229.23 0 512C0 794.77 229.23 1024 512 1024Z" fill="#9ABEFF"/>
<path d="M273.83 669.16H273.74V605.51H337.39V669.16H413.39V570.33H512.2V668.85C617.26 668.72 698.36 564.73 658.31 454.21C650.889 433.918 639.125 415.492 623.84 400.221C608.555 384.95 590.119 373.203 569.82 365.8C459.15 325.65 355.09 406.95 355.09 512.12H256C256 344.6 417.85 214.12 593.43 268.92C631.384 280.877 665.893 301.812 694.031 329.95C722.168 358.087 743.103 392.597 755.06 430.55C809.86 606.15 679.45 768 511.89 768V669.16H413.31V745.07H337.39V669.16H273.83Z" fill="white"/>
</g>
<defs>
<clipPath id="clip0_2_2001">
<rect width="1024" height="1024" fill="white"/>
</clipPath>
</defs>
</svg>

<svg width="1024" height="1024" fill="none" xmlns="http://www.w3.org/2000/svg"><g clip-path="url(#a)"><path d="M512 1024c282.77 0 512-229.23 512-512S794.77 0 512 0 0 229.23 0 512s229.23 512 512 512Z" fill="#9ABEFF"/><path d="M273.83 669.16h-.09v-63.65h63.65v63.65h76v-98.83h98.81v98.52c105.06-.13 186.16-104.12 146.11-214.64a148.334 148.334 0 0 0-88.49-88.41c-110.67-40.15-214.73 41.15-214.73 146.32H256c0-167.52 161.85-298 337.43-243.2a247.402 247.402 0 0 1 161.63 161.63C809.86 606.15 679.45 768 511.89 768v-98.84h-98.58v75.91h-75.92v-75.91h-63.56Z" fill="#fff"/></g><defs><clipPath id="a"><path fill="#fff" d="M0 0h1024v1024H0z"/></clipPath></defs></svg>
